public/images/icons/MaterialUI.svg

<svg width="196" height="171" viewBox="0 0 196 171" fill="none" xmlns="http://www.w3.org/2000/svg">
<path d="M106.57 118.015C101.048 121.178 101.037 124.366 106.535 127.577L121.259 136.183C124.468 138.072 127.689 138.084 130.922 136.219L165.962 115.996C166.598 115.629 167.128 115.103 167.5 114.47C167.872 113.837 168.074 113.118 168.086 112.383L168.263 83.5188C168.31 78.5368 170.552 74.9361 174.988 72.7167C182.798 68.7972 187.058 66.6604 187.766 66.3063C193.145 63.6146 195.835 65.1375 195.835 70.875V128.25C195.837 129.036 195.628 129.81 195.23 130.494C194.833 131.178 194.26 131.748 193.57 132.146L128.232 169.688C127.593 170.044 126.874 170.231 126.143 170.231C125.412 170.231 124.693 170.044 124.055 169.688L72.8742 140.433C71.0808 139.418 70.1842 137.883 70.1842 135.829V108.877C70.1842 107.578 70.7505 106.61 71.8831 105.973L109.012 84.6875C110.9 83.6014 111.879 81.984 111.95 79.8354C112.233 70.7688 112.103 62.1861 111.561 54.0875C111.183 48.3972 108.517 46.9806 103.561 49.8375L73.2281 67.3333C72.3134 67.8618 71.2758 68.14 70.2196 68.14C69.1633 68.14 68.1257 67.8618 67.211 67.3333L36.7362 49.8375C35.8624 49.3402 34.8733 49.0799 33.8681 49.0827C32.8629 49.0856 31.8769 49.3516 31.0091 49.8539C30.1413 50.3562 29.4223 51.0773 28.924 51.9447C28.4258 52.8121 28.166 53.7954 28.1706 54.7958V104.45C28.1706 111.51 25.1267 113.257 19.0388 109.692L4.70392 101.298C1.73076 99.5507 0.255979 96.9653 0.279576 93.5417L0.421154 6.62918C0.42011 5.6464 0.67775 4.68068 1.16816 3.82918C1.65856 2.97767 2.36444 2.27042 3.21476 1.77858C4.06509 1.28674 5.02986 1.02765 6.01203 1.02739C6.9942 1.02713 7.95912 1.2857 8.80971 1.77709L67.1756 35.3875C68.0705 35.9038 69.083 36.1786 70.1133 36.1848C71.1437 36.191 72.1562 35.9284 73.0511 35.4229L132.302 1.42293C133.071 0.982579 133.943 0.752115 134.829 0.754597C135.715 0.75708 136.586 0.992419 137.353 1.43707C138.119 1.88172 138.756 2.5201 139.199 3.28833C139.642 4.05655 139.876 4.92769 139.876 5.8146V95.6313C139.876 96.634 139.614 97.6172 139.117 98.4816C138.62 99.346 137.905 100.061 137.045 100.554L106.57 118.015Z" fill="#007FFF"/>
<path d="M193.181 31.2438L176.793 40.8771C175.981 41.3586 175.057 41.6165 174.113 41.6245C173.169 41.6325 172.24 41.3903 171.421 40.9226C170.601 40.4548 169.919 39.7782 169.446 38.9615C168.972 38.1449 168.723 37.2172 168.723 36.2729L168.688 16.475C168.683 15.5495 168.919 14.6386 169.372 13.8316C169.825 13.0246 170.48 12.349 171.272 11.8709L187.801 1.95418C188.614 1.46365 189.542 1.19846 190.491 1.18587C191.44 1.17328 192.375 1.41375 193.2 1.88255C194.026 2.35135 194.711 3.03158 195.187 3.85335C195.662 4.67511 195.911 5.60876 195.906 6.55835L195.8 26.6396C195.801 27.5686 195.56 28.4817 195.1 29.289C194.641 30.0964 193.98 30.7701 193.181 31.2438Z" fill="#007FFF"/>
</svg>

<svg width="196" height="171" fill="none" xmlns="http://www.w3.org/2000/svg"><path d="M106.57 118.015c-5.522 3.163-5.533 6.351-.035 9.562l14.724 8.606c3.209 1.889 6.43 1.901 9.663.036l35.04-20.223a4.245 4.245 0 0 0 2.124-3.613l.177-28.864c.047-4.982 2.289-8.583 6.725-10.802 7.81-3.92 12.07-6.057 12.778-6.41 5.379-2.692 8.069-1.17 8.069 4.568v57.375a4.44 4.44 0 0 1-.605 2.244 4.542 4.542 0 0 1-1.66 1.652l-65.338 37.542a4.292 4.292 0 0 1-4.177 0l-51.18-29.255c-1.794-1.015-2.69-2.55-2.69-4.604v-26.952c0-1.299.566-2.267 1.698-2.904l37.129-21.285c1.888-1.087 2.867-2.704 2.938-4.853.283-9.066.153-17.649-.389-25.747-.378-5.69-3.044-7.107-8-4.25L73.228 67.332a6.013 6.013 0 0 1-6.017 0L36.736 49.838a5.767 5.767 0 0 0-2.868-.755 5.74 5.74 0 0 0-2.859.77 5.671 5.671 0 0 0-2.838 4.942v49.655c0 7.06-3.044 8.807-9.132 5.242l-14.335-8.394C1.73 99.551.256 96.965.28 93.542L.42 6.629a5.598 5.598 0 0 1 2.794-4.85 5.59 5.59 0 0 1 5.595-.002l58.366 33.61a5.951 5.951 0 0 0 2.937.798 5.9 5.9 0 0 0 2.938-.762l59.251-34a5.058 5.058 0 0 1 6.897 1.865c.443.769.677 1.64.677 2.527V95.63a5.719 5.719 0 0 1-.759 2.85 5.61 5.61 0 0 1-2.072 2.073l-30.475 17.461Z" fill="#007FFF"/><path d="m193.181 31.244-16.388 9.633a5.341 5.341 0 0 1-7.347-1.916 5.355 5.355 0 0 1-.723-2.688l-.035-19.798a5.342 5.342 0 0 1 2.584-4.604l16.529-9.917a5.343 5.343 0 0 1 8.105 4.604L195.8 26.64a5.34 5.34 0 0 1-.7 2.649 5.34 5.34 0 0 1-1.919 1.955Z" fill="#007FFF"/></svg>
